X:1
T:友谊地久天长
M:4/4
L:1/8
V:1
Q:1/4=80
K:C
|z6G,2|C3CC2E2|D3CD2ED|C3CE2G2|
|A6A2|G3EE2C2|D3CD2ED|C3A,A,3G,|
|C6A2|G3EE2C2|D3CD2A2|G3EE2G2|
|A6c2|G3EE2C2|D3CD2ED|C3A,A,2G,2|C8|